X: 1
T: the Reconciliation #2
Z: 2014 John Chambers <jc:trillian.mit.edu>
S: printed page of unknown origin from Concord Slow Scottish Session collection
R: reel
M: C|
L: 1/8
K: A
e2 |\
"A"A2cA eAfA | "A"eAfA ecBc | "A"A2cA eAfA | "Bm"ecBc "D"AFEF |
"A"A2cA eAfA | "A"eAfA ecBc | "A"ABAF Ec"D"df | "E7"ecBc "A"A4  :|
|: cB |\
"A"A2ce a2af | "A"efed cdcB | "A"A2ce a2ag | "B7"fbba "E7"gbeg |
"A"agae faec | "D"dBcA "E7"BAFG | "A"ABAF Ec"D"df | "E7"ecBc "A"A4  :|
